src/icons/ping.svg

<?xml version="1.0" encoding="UTF-8"?>
<svg xmlns="http://www.w3.org/2000/svg" xmlns:xlink="http://www.w3.org/1999/xlink" width="32" height="32" viewBox="0 0 32 32" version="1.1">
<g id="surface1">
<path style=" stroke:none;fill-rule:nonzero;fill:rgb(89.019608%,0%,17.254902%);fill-opacity:1;" d="M 3.503906 3.738281 L 28.542969 3.738281 L 28.542969 28.28125 L 3.503906 28.28125 Z M 3.503906 3.738281 "/>
<path style=" stroke:none;fill-rule:nonzero;fill:rgb(100%,100%,100%);fill-opacity:1;" d="M 19.355469 25.28125 C 19.15625 25.28125 18.988281 25.457031 18.988281 25.667969 C 18.988281 25.882812 19.15625 26.054688 19.355469 26.054688 C 19.5625 26.050781 19.730469 25.878906 19.726562 25.667969 C 19.730469 25.457031 19.5625 25.285156 19.355469 25.28125 M 19.355469 25.984375 C 19.203125 25.984375 19.078125 25.851562 19.078125 25.667969 C 19.078125 25.488281 19.199219 25.355469 19.355469 25.355469 C 19.507812 25.355469 19.636719 25.488281 19.636719 25.667969 C 19.636719 25.851562 19.507812 25.984375 19.355469 25.984375 M 19.523438 25.574219 C 19.523438 25.480469 19.46875 25.449219 19.371094 25.449219 L 19.214844 25.449219 L 19.214844 25.890625 L 19.292969 25.890625 L 19.292969 25.699219 L 19.34375 25.699219 L 19.449219 25.890625 L 19.527344 25.890625 L 19.414062 25.699219 C 19.484375 25.6875 19.523438 25.652344 19.523438 25.574219 M 19.292969 25.640625 L 19.292969 25.511719 L 19.363281 25.511719 C 19.402344 25.511719 19.445312 25.519531 19.445312 25.570312 C 19.445312 25.628906 19.40625 25.632812 19.363281 25.632812 L 19.292969 25.632812 Z M 18.378906 25.148438 C 18.320312 25.371094 18.226562 25.707031 18.226562 25.707031 L 18.21875 25.707031 C 18.21875 25.707031 18.144531 25.296875 18.070312 25.046875 L 17.566406 23.316406 L 17.183594 23.457031 L 17.710938 25.125 C 17.796875 25.394531 17.929688 25.910156 17.957031 26.082031 C 17.957031 26.082031 17.984375 26.175781 18.023438 26.378906 C 17.917969 26.671875 17.792969 26.789062 17.550781 26.871094 L 17.664062 27.15625 C 18.097656 27.042969 18.292969 26.691406 18.457031 26.15625 L 19.304688 23.390625 L 18.863281 23.390625 Z M 16.925781 23.714844 L 17.046875 23.402344 L 16.425781 23.402344 L 16.425781 22.390625 L 16.03125 22.390625 L 16.03125 23.402344 L 15.707031 23.402344 L 15.707031 23.714844 L 16.03125 23.714844 L 16.03125 25.546875 C 16.03125 25.816406 16.09375 25.984375 16.265625 26.074219 C 16.367188 26.125 16.476562 26.152344 16.589844 26.148438 C 16.742188 26.148438 16.890625 26.113281 17.027344 26.042969 L 16.972656 25.773438 C 16.898438 25.8125 16.8125 25.832031 16.730469 25.824219 C 16.492188 25.824219 16.417969 25.722656 16.417969 25.429688 L 16.417969 23.710938 L 16.925781 23.710938 Z M 14.015625 23.402344 L 14.015625 22.390625 L 13.621094 22.390625 L 13.621094 23.402344 L 13.300781 23.402344 L 13.300781 23.714844 L 13.625 23.714844 L 13.625 25.546875 C 13.625 25.816406 13.6875 25.988281 13.859375 26.074219 C 13.957031 26.125 14.070312 26.152344 14.183594 26.148438 C 14.335938 26.148438 14.484375 26.113281 14.621094 26.042969 L 14.566406 25.773438 C 14.492188 25.8125 14.410156 25.832031 14.328125 25.824219 C 14.085938 25.824219 14.011719 25.722656 14.011719 25.429688 L 14.011719 23.710938 L 15.082031 23.710938 L 15.082031 26.0625 L 15.484375 26.0625 L 15.484375 23.335938 L 15.144531 23.394531 L 14.015625 23.394531 Z M 12.40625 23.34375 C 12.148438 23.34375 11.886719 23.476562 11.632812 23.753906 C 11.632812 23.535156 11.542969 23.335938 11.542969 23.335938 L 11.164062 23.449219 C 11.164062 23.449219 11.257812 23.632812 11.257812 24.011719 L 11.257812 26.066406 L 11.636719 26.066406 L 11.636719 24.078125 C 11.8125 23.878906 12.121094 23.707031 12.320312 23.707031 C 12.421875 23.703125 12.523438 23.742188 12.589844 23.820312 C 12.65625 23.910156 12.675781 23.980469 12.675781 24.265625 L 12.675781 26.066406 L 13.070312 26.066406 L 13.070312 24.042969 C 13.070312 23.9375 13.050781 23.832031 13.011719 23.734375 C 12.90625 23.492188 12.667969 23.339844 12.40625 23.34375 M 10.960938 24.800781 L 10.960938 24.742188 C 10.949219 24.101562 10.890625 23.851562 10.679688 23.617188 C 10.507812 23.429688 10.265625 23.324219 10.011719 23.328125 C 9.722656 23.324219 9.449219 23.460938 9.277344 23.695312 C 9.070312 23.964844 8.980469 24.25 8.980469 24.703125 C 8.980469 25.585938 9.394531 26.121094 10.074219 26.121094 C 10.394531 26.121094 10.691406 26.003906 10.90625 25.785156 L 10.757812 25.515625 C 10.601562 25.679688 10.382812 25.769531 10.15625 25.765625 C 9.910156 25.765625 9.679688 25.667969 9.542969 25.4375 C 9.457031 25.300781 9.429688 25.105469 9.429688 24.855469 L 9.429688 24.789062 L 10.960938 24.789062 Z M 9.988281 23.65625 C 10.175781 23.65625 10.351562 23.75 10.433594 23.890625 C 10.507812 24.019531 10.542969 24.195312 10.546875 24.484375 L 9.417969 24.484375 C 9.4375 23.9375 9.632812 23.65625 9.988281 23.65625 M 8.703125 25.203125 L 8.703125 22.390625 L 8.3125 22.390625 L 8.3125 23.277344 C 8.3125 23.46875 8.320312 23.691406 8.320312 23.691406 C 8.167969 23.472656 7.917969 23.347656 7.652344 23.351562 C 7.476562 23.351562 7.308594 23.410156 7.175781 23.519531 C 6.835938 23.769531 6.664062 24.1875 6.664062 24.753906 C 6.664062 25.605469 7.03125 26.105469 7.671875 26.105469 C 7.957031 26.105469 8.148438 26.015625 8.324219 25.796875 C 8.328125 25.890625 8.347656 25.980469 8.378906 26.070312 L 8.777344 26.070312 C 8.722656 25.910156 8.703125 25.664062 8.703125 25.203125 M 8.308594 25.382812 C 8.308594 25.382812 8.265625 25.496094 8.160156 25.574219 C 8.03125 25.691406 7.859375 25.753906 7.6875 25.746094 C 7.460938 25.746094 7.304688 25.652344 7.191406 25.4375 C 7.113281 25.28125 7.09375 25.050781 7.09375 24.742188 C 7.09375 24.367188 7.132812 24.171875 7.25 23.96875 C 7.339844 23.796875 7.515625 23.691406 7.710938 23.691406 C 8 23.691406 8.1875 23.785156 8.308594 23.96875 Z M 6.074219 22.394531 L 6.472656 22.394531 L 6.472656 26.066406 L 6.074219 26.066406 Z M 10.429688 13.902344 C 9.976562 13.632812 9.5625 13.488281 8.191406 13.488281 L 6.070312 13.488281 L 6.070312 22.011719 L 7.695312 22.011719 L 7.695312 18.871094 L 8.589844 18.871094 C 9.480469 18.871094 9.832031 18.773438 10.199219 18.589844 C 11.078125 18.148438 11.585938 17.242188 11.585938 16.113281 C 11.585938 15.132812 11.183594 14.347656 10.429688 13.902344 M 9.621094 17.03125 C 9.398438 17.382812 9.203125 17.472656 8.542969 17.472656 L 7.699219 17.472656 L 7.699219 14.871094 L 8.730469 14.871094 C 9.414062 14.871094 9.820312 15.351562 9.820312 16.148438 C 9.816406 16.554688 9.761719 16.800781 9.621094 17.03125 M 13.875 14.003906 C 13.875 14.566406 13.449219 15.019531 12.914062 15.019531 C 12.394531 15.019531 11.960938 14.5625 11.960938 14.003906 C 11.960938 13.441406 12.402344 12.988281 12.933594 12.988281 C 13.457031 12.980469 13.875 13.4375 13.875 14.003906 M 13.6875 15.582031 L 13.6875 22.011719 L 12.136719 22.011719 L 12.136719 15.84375 Z M 15.785156 15.574219 C 15.921875 15.832031 16.003906 16.097656 16.003906 16.359375 C 16.234375 16.1875 16.433594 16.039062 16.6875 15.890625 C 17 15.71875 17.402344 15.621094 17.753906 15.621094 C 18.414062 15.621094 18.992188 15.988281 19.175781 16.53125 C 19.257812 16.761719 19.292969 17.03125 19.292969 17.421875 L 19.292969 22.011719 L 17.765625 22.011719 L 17.765625 17.929688 C 17.765625 17.21875 17.648438 17.011719 17.246094 17.011719 C 16.933594 17.011719 16.53125 17.230469 16.171875 17.574219 L 16.171875 22.015625 L 14.617188 22.015625 L 14.617188 17.46875 C 14.617188 16.925781 14.546875 16.414062 14.410156 15.996094 Z M 22.96875 20.402344 L 22.136719 20.394531 C 21.972656 20.394531 21.878906 20.328125 21.878906 20.246094 C 21.878906 20.074219 22.101562 19.925781 22.492188 19.730469 C 22.609375 19.746094 22.65625 19.746094 22.722656 19.746094 C 23.984375 19.746094 24.914062 18.960938 24.914062 17.878906 C 24.914062 17.460938 24.796875 17.144531 24.5625 16.847656 C 24.65625 16.859375 24.820312 16.882812 24.972656 16.882812 C 25.398438 16.882812 25.722656 16.746094 26.0625 16.417969 L 25.414062 15.375 C 25.054688 15.71875 24.613281 15.917969 24.1875 15.917969 C 23.988281 15.917969 23.777344 15.867188 23.457031 15.777344 C 23.027344 15.671875 22.722656 15.621094 22.390625 15.621094 C 20.875 15.621094 19.886719 16.457031 19.886719 17.742188 C 19.886719 18.675781 20.304688 19.25 21.164062 19.484375 C 20.191406 19.753906 20.074219 20.132812 20.074219 20.539062 C 20.074219 20.972656 20.246094 21.25 20.523438 21.359375 C 20.804688 21.480469 21.257812 21.542969 21.949219 21.554688 L 22.609375 21.570312 C 23.222656 21.582031 23.699219 21.757812 23.699219 22.316406 C 23.699219 22.578125 23.546875 22.808594 23.316406 22.953125 C 23.074219 23.117188 22.738281 23.160156 22.347656 23.160156 C 21.628906 23.160156 21.230469 22.890625 21.230469 22.390625 C 21.230469 22.21875 21.242188 22.136719 21.300781 21.988281 L 19.863281 21.988281 C 19.765625 22.183594 19.71875 22.40625 19.726562 22.625 C 19.726562 23.054688 19.886719 23.421875 20.210938 23.738281 C 20.746094 24.265625 21.613281 24.414062 22.457031 24.414062 C 23.386719 24.414062 24.28125 24.191406 24.800781 23.601562 C 25.125 23.234375 25.277344 22.832031 25.277344 22.300781 C 25.277344 21.738281 25.113281 21.308594 24.765625 20.96875 C 24.347656 20.5625 23.871094 20.417969 22.96875 20.402344 M 21.453125 17.757812 C 21.453125 17.167969 21.792969 16.824219 22.378906 16.824219 C 22.972656 16.824219 23.316406 17.167969 23.316406 17.757812 C 23.316406 18.332031 22.984375 18.648438 22.367188 18.648438 C 21.820312 18.648438 21.453125 18.394531 21.453125 17.757812 "/>
</g>
</svg>

<svg role="img" viewBox="0 0 32 32" xmlns="http://www.w3.org/2000/svg"><path d="M3.504 3.738h25.039v24.543H3.503Zm0 0" style="stroke:none;fill-rule:nonzero;fill:rgb(89.019608%,0%,17.254902%);fill-opacity:1"/><path d="M19.355 25.281c-.199 0-.367.176-.367.387 0 .215.168.387.367.387a.382.382 0 0 0 .372-.387.382.382 0 0 0-.372-.387m0 .703c-.152 0-.277-.132-.277-.316 0-.18.121-.313.277-.313.153 0 .282.133.282.313 0 .184-.13.316-.282.316m.168-.41c0-.094-.054-.125-.152-.125h-.156v.442h.078v-.192h.05l.106.192h.078l-.113-.192c.07-.012.11-.047.11-.125m-.231.067v-.13h.07c.04 0 .082.009.082.06 0 .058-.039.062-.082.062h-.07Zm-.914-.493c-.059.223-.152.559-.152.559h-.008s-.074-.41-.149-.66l-.504-1.73-.382.14.527 1.668c.086.27.219.785.246.957 0 0 .027.094.066.297-.105.293-.23.41-.472.492l.113.285c.434-.113.629-.465.793-1l.848-2.765h-.442Zm-1.453-1.433.12-.313h-.62v-1.011h-.395v1.011h-.324v.313h.324v1.832c0 .27.063.437.235.527a.637.637 0 0 0 .324.074.92.92 0 0 0 .437-.105l-.054-.27a.446.446 0 0 1-.243.051c-.238 0-.312-.101-.312-.394v-1.72h.508Zm-2.91-.313v-1.011h-.395v1.011h-.32v.313h.324v1.832c0 .27.063.441.234.527a.643.643 0 0 0 .325.074.922.922 0 0 0 .437-.105l-.055-.27a.432.432 0 0 1-.238.051c-.242 0-.316-.101-.316-.394v-1.72h1.07v2.352h.402v-2.726l-.34.059h-1.128Zm-1.61-.058c-.258 0-.52.133-.773.41 0-.219-.09-.418-.09-.418l-.379.113s.094.184.094.563v2.054h.379v-1.988c.175-.2.484-.371.683-.371a.34.34 0 0 1 .27.113c.066.09.086.16.086.446v1.8h.394v-2.023a.818.818 0 0 0-.058-.309.649.649 0 0 0-.606-.39M10.96 24.8v-.058c-.01-.64-.07-.89-.28-1.125a.877.877 0 0 0-.668-.289.89.89 0 0 0-.735.367c-.207.27-.297.555-.297 1.008 0 .883.415 1.418 1.094 1.418.32 0 .617-.117.832-.336l-.148-.27a.808.808 0 0 1-.602.25c-.246 0-.476-.097-.613-.328-.086-.136-.113-.332-.113-.582v-.066h1.53Zm-.972-1.144c.188 0 .364.094.446.235.074.129.109.304.113.593H9.418c.02-.547.215-.828.57-.828m-1.285 1.547v-2.812h-.39v.886c0 .192.007.414.007.414a.8.8 0 0 0-.668-.34.745.745 0 0 0-.476.169c-.34.25-.512.668-.512 1.234 0 .851.367 1.351 1.008 1.351.285 0 .476-.09.652-.308a.985.985 0 0 0 .055.273h.398c-.054-.16-.074-.406-.074-.867m-.394.18s-.043.113-.149.191a.663.663 0 0 1-.473.172c-.226 0-.382-.094-.496-.308-.078-.157-.097-.387-.097-.696 0-.375.039-.57.156-.773a.515.515 0 0 1 .46-.278c.29 0 .478.094.599.278Zm-2.235-2.988h.399v3.671h-.399Zm4.356-8.493c-.453-.27-.867-.414-2.239-.414h-2.12v8.524h1.624v-3.14h.895c.89 0 1.242-.099 1.61-.282.878-.442 1.386-1.348 1.386-2.477 0-.98-.402-1.765-1.156-2.21m-.81 3.127c-.223.352-.418.442-1.078.442h-.844V14.87H8.73c.684 0 1.09.48 1.09 1.277-.004.407-.058.653-.199.883m4.254-3.026c0 .562-.426 1.016-.96 1.016-.52 0-.954-.457-.954-1.016 0-.563.441-1.016.973-1.016.523-.008.941.45.941 1.016m-.187 1.578v6.43h-1.551v-6.168Zm2.097-.008c.137.258.219.524.219.785.23-.172.43-.32.683-.468.313-.172.715-.27 1.067-.27.66 0 1.238.367 1.422.91.082.23.117.5.117.89v4.59h-1.527V17.93c0-.711-.118-.918-.52-.918-.312 0-.715.218-1.074.562v4.442h-1.555v-4.547c0-.543-.07-1.055-.207-1.473Zm7.184 4.828-.832-.007c-.164 0-.258-.067-.258-.149 0-.172.223-.32.613-.516.117.016.164.016.23.016 1.262 0 2.192-.785 2.192-1.867 0-.418-.117-.734-.352-1.031.094.011.258.035.41.035.426 0 .75-.137 1.09-.465l-.648-1.043c-.36.344-.8.543-1.227.543-.199 0-.41-.05-.73-.14-.43-.106-.734-.157-1.066-.157-1.516 0-2.504.836-2.504 2.121 0 .934.418 1.508 1.277 1.742-.973.27-1.09.649-1.09 1.055 0 .434.172.711.45.82.28.121.734.184 1.425.196l.66.015c.614.012 1.09.188 1.09.746 0 .262-.152.493-.383.637-.242.164-.578.207-.968.207-.72 0-1.118-.27-1.118-.77 0-.171.012-.253.07-.402h-1.437a1.305 1.305 0 0 0-.136.637c0 .43.16.797.484 1.113.535.528 1.402.676 2.246.676.93 0 1.824-.223 2.344-.812.324-.368.476-.77.476-1.301 0-.563-.164-.992-.511-1.332-.418-.407-.895-.551-1.797-.567m-1.516-2.644c0-.59.34-.934.926-.934.594 0 .937.344.937.934 0 .574-.332.89-.949.89-.547 0-.914-.253-.914-.89" style="stroke:none;fill-rule:nonzero;fill:rgb(100%,100%,100%);fill-opacity:1"/></svg>
